X:13
T:McCusker's
R:mazurka
H:A version of #1 and #9
Z:id:hn-mazurka-13
M:3/4
L:1/8
K:G
DG | B2 B2 GB | d2 d2 ed | c2 ce dc | B2 B2 DG |
B2 BA GB | d2 d2 ed | cB cA FA | G2 G2 :|
|: Bd | g2 g2 fe | d2 d2 ed | c2 ce dc | B2 B2 Bd |
g2 g2 fe | d2 d2 ed | cB cA FA | G2 G2 :|
<end>
<start>
